public/googleplay.svg

<svg width="205" height="61" viewBox="0 0 205 61" fill="none" xmlns="http://www.w3.org/2000/svg">
<path d="M196.704 60.3829H8.00685C3.78005 60.3829 0.458984 57.0619 0.458984 52.8351V7.54787C0.458984 3.32106 3.78005 0 8.00685 0H196.704C200.93 0 204.251 3.32106 204.251 7.54787V52.8351C204.251 57.0619 200.93 60.3829 196.704 60.3829Z" fill="black"/>
<path d="M196.704 1.20766C200.176 1.20766 203.044 4.07585 203.044 7.54787V52.8351C203.044 56.3071 200.176 59.1753 196.704 59.1753H8.00685C4.53483 59.1753 1.66664 56.3071 1.66664 52.8351V7.54787C1.66664 4.07585 4.53483 1.20766 8.00685 1.20766H196.704ZM196.704 0H8.00685C3.78005 0 0.458984 3.47202 0.458984 7.54787V52.8351C0.458984 57.0619 3.78005 60.3829 8.00685 60.3829H196.704C200.93 60.3829 204.251 57.0619 204.251 52.8351V7.54787C204.251 3.47202 200.93 0 196.704 0Z" fill="#A6A6A6"/>
<path d="M72.0125 15.3976C72.0125 16.6053 71.7106 17.662 70.9558 18.4168C70.0501 19.3225 68.9934 19.7754 67.6348 19.7754C66.2761 19.7754 65.2194 19.3225 64.3137 18.4168C63.4079 17.511 62.9551 16.4543 62.9551 15.0957C62.9551 13.7371 63.4079 12.6804 64.3137 11.7746C65.2194 10.8689 66.2761 10.416 67.6348 10.416C68.2386 10.416 68.8424 10.567 69.4462 10.8689C70.0501 11.1708 70.5029 11.4727 70.8049 11.9256L70.0501 12.6804C69.4462 11.9256 68.6915 11.6237 67.6348 11.6237C66.729 11.6237 65.8233 11.9256 65.2194 12.6804C64.4647 13.2842 64.1627 14.1899 64.1627 15.2467C64.1627 16.3034 64.4647 17.2091 65.2194 17.8129C65.9742 18.4168 66.729 18.8696 67.6348 18.8696C68.6915 18.8696 69.4462 18.5677 70.201 17.8129C70.6539 17.3601 70.9558 16.7562 70.9558 16.0014H67.6348V14.7938H72.0125V15.3976ZM78.9566 11.6237H74.8807V14.4919H78.6546V15.5486H74.8807V18.4168H78.9566V19.6244H73.673V10.567H78.9566V11.6237ZM83.9381 19.6244H82.7305V11.6237H80.1642V10.567H86.5044V11.6237H83.9381V19.6244ZM90.8822 19.6244V10.567H92.0898V19.6244H90.8822ZM97.2224 19.6244H96.0147V11.6237H93.4485V10.567H99.6377V11.6237H97.0714V19.6244H97.2224ZM111.563 18.4168C110.658 19.3225 109.601 19.7754 108.242 19.7754C106.884 19.7754 105.827 19.3225 104.921 18.4168C104.015 17.511 103.563 16.4543 103.563 15.0957C103.563 13.7371 104.015 12.6804 104.921 11.7746C105.827 10.8689 106.884 10.416 108.242 10.416C109.601 10.416 110.658 10.8689 111.563 11.7746C112.469 12.6804 112.922 13.7371 112.922 15.0957C112.922 16.4543 112.469 17.511 111.563 18.4168ZM105.827 17.662C106.431 18.2658 107.337 18.7187 108.242 18.7187C109.148 18.7187 110.054 18.4168 110.658 17.662C111.261 17.0581 111.714 16.1524 111.714 15.0957C111.714 14.039 111.412 13.1332 110.658 12.5294C110.054 11.9256 109.148 11.4727 108.242 11.4727C107.337 11.4727 106.431 11.7746 105.827 12.5294C105.223 13.1332 104.77 14.039 104.77 15.0957C104.77 16.1524 105.072 17.0581 105.827 17.662ZM114.582 19.6244V10.567H115.941L120.319 17.662V10.567H121.527V19.6244H120.319L115.639 12.2275V19.6244H114.582Z" fill="white" stroke="white" stroke-width="0.301915" stroke-miterlimit="10"/>
<path d="M103.26 32.909C99.6375 32.909 96.7693 35.6262 96.7693 39.4001C96.7693 43.0231 99.6375 45.8913 103.26 45.8913C106.883 45.8913 109.752 43.1741 109.752 39.4001C109.752 35.4752 106.883 32.909 103.26 32.909ZM103.26 43.1741C101.298 43.1741 99.6375 41.5135 99.6375 39.2492C99.6375 36.9848 101.298 35.3243 103.26 35.3243C105.223 35.3243 106.883 36.8338 106.883 39.2492C106.883 41.5135 105.223 43.1741 103.26 43.1741ZM89.2214 32.909C85.5984 32.909 82.7302 35.6262 82.7302 39.4001C82.7302 43.0231 85.5984 45.8913 89.2214 45.8913C92.8444 45.8913 95.7126 43.1741 95.7126 39.4001C95.7126 35.4752 92.8444 32.909 89.2214 32.909ZM89.2214 43.1741C87.259 43.1741 85.5984 41.5135 85.5984 39.2492C85.5984 36.9848 87.259 35.3243 89.2214 35.3243C91.1838 35.3243 92.8444 36.8338 92.8444 39.2492C92.8444 41.5135 91.1838 43.1741 89.2214 43.1741ZM72.4651 34.8714V37.5886H78.9563C78.8053 39.0982 78.2015 40.3059 77.4467 41.0607C76.541 41.9664 75.0314 43.0231 72.4651 43.0231C68.3893 43.0231 65.3701 39.853 65.3701 35.7771C65.3701 31.7013 68.5402 28.5312 72.4651 28.5312C74.5785 28.5312 76.2391 29.4369 77.4467 30.4936L79.4092 28.5312C77.7486 27.0216 75.6352 25.814 72.6161 25.814C67.1816 25.814 62.502 30.3427 62.502 35.7771C62.502 41.2116 67.1816 45.7403 72.6161 45.7403C75.6352 45.7403 77.7486 44.8346 79.5601 42.8721C81.3716 41.0607 81.9755 38.4944 81.9755 36.5319C81.9755 35.9281 81.9755 35.3243 81.8245 34.8714H72.4651ZM141 36.9848C140.396 35.4752 138.886 32.909 135.565 32.909C132.244 32.909 129.527 35.4752 129.527 39.4001C129.527 43.0231 132.244 45.8913 135.867 45.8913C138.735 45.8913 140.547 44.0798 141.151 43.0231L139.037 41.5135C138.283 42.5702 137.377 43.325 135.867 43.325C134.358 43.325 133.452 42.7212 132.697 41.3626L141.302 37.7396L141 36.9848ZM132.244 39.0982C132.244 36.6829 134.207 35.3243 135.565 35.3243C136.622 35.3243 137.679 35.9281 137.981 36.6829L132.244 39.0982ZM125.149 45.2875H128.017V26.4178H125.149V45.2875ZM120.621 34.2676C119.866 33.5128 118.658 32.758 117.149 32.758C113.978 32.758 110.959 35.6262 110.959 39.2492C110.959 42.8721 113.827 45.5894 117.149 45.5894C118.658 45.5894 119.866 44.8346 120.47 44.0798H120.621V44.9855C120.621 47.4009 119.262 48.7595 117.149 48.7595C115.488 48.7595 114.28 47.5518 113.978 46.4951L111.563 47.5518C112.318 49.2123 114.129 51.3258 117.299 51.3258C120.621 51.3258 123.338 49.3633 123.338 44.6836V33.2109H120.621V34.2676ZM117.299 43.1741C115.337 43.1741 113.676 41.5135 113.676 39.2492C113.676 36.9848 115.337 35.3243 117.299 35.3243C119.262 35.3243 120.771 36.9848 120.771 39.2492C120.771 41.5135 119.262 43.1741 117.299 43.1741ZM154.133 26.4178H147.34V45.2875H150.208V38.1925H154.133C157.303 38.1925 160.322 35.9281 160.322 32.3051C160.322 28.6822 157.303 26.4178 154.133 26.4178ZM154.284 35.4752H150.208V28.9841H154.284C156.397 28.9841 157.605 30.7956 157.605 32.1542C157.454 33.8147 156.246 35.4752 154.284 35.4752ZM171.644 32.758C169.531 32.758 167.417 33.6637 166.663 35.6262L169.229 36.6829C169.833 35.6262 170.738 35.3243 171.795 35.3243C173.305 35.3243 174.663 36.23 174.814 37.7396V37.8905C174.361 37.5886 173.154 37.1358 171.946 37.1358C169.229 37.1358 166.512 38.6453 166.512 41.3626C166.512 43.9288 168.776 45.5894 171.191 45.5894C173.154 45.5894 174.059 44.6836 174.814 43.7779H174.965V45.2875H177.682V38.0415C177.38 34.7204 174.814 32.758 171.644 32.758ZM171.342 43.1741C170.436 43.1741 169.078 42.7212 169.078 41.5135C169.078 40.004 170.738 39.5511 172.097 39.5511C173.305 39.5511 173.908 39.853 174.663 40.1549C174.361 41.9664 172.852 43.1741 171.342 43.1741ZM187.193 33.2109L184.023 41.3626H183.872L180.551 33.2109H177.531L182.513 44.6836L179.645 51.0238H182.513L190.212 33.2109H187.193ZM161.832 45.2875H164.7V26.4178H161.832V45.2875Z" fill="white"/>
<path d="M16.1585 11.3218C15.7056 11.7746 15.5547 12.5294 15.5547 13.4352V46.7967C15.5547 47.7025 15.8566 48.4573 16.3095 48.9102L16.4604 49.0611L35.1791 30.3424V30.0405L16.1585 11.3218Z" fill="url(#paint0_linear_144_459)"/>
<path d="M41.2166 36.6829L35.0273 30.4937V30.0408L41.2166 23.8516L41.3676 24.0025L48.7645 28.2293C50.8779 29.437 50.8779 31.3994 48.7645 32.6071L41.2166 36.6829Z" fill="url(#paint1_linear_144_459)"/>
<path d="M41.3681 36.5316L35.0279 30.1914L16.1582 49.0611C16.913 49.8159 17.9697 49.8159 19.3283 49.212L41.3681 36.5316Z" fill="url(#paint2_linear_144_459)"/>
<path d="M41.3681 23.8514L19.3283 11.3219C17.9697 10.5671 16.913 10.7181 16.1582 11.4729L35.0279 30.1916L41.3681 23.8514Z" fill="url(#paint3_linear_144_459)"/>
<path opacity="0.2" d="M41.2171 36.3804L19.3283 48.7589C18.1206 49.5137 17.0639 49.3627 16.3092 48.7589L16.1582 48.9098L16.3092 49.0608C17.0639 49.6646 18.1206 49.8156 19.3283 49.0608L41.2171 36.3804Z" fill="black"/>
<path opacity="0.12" d="M16.1585 48.7592C15.7056 48.3063 15.5547 47.5515 15.5547 46.6458V46.7967C15.5547 47.7025 15.8566 48.4572 16.3095 48.9101V48.7592H16.1585ZM48.7653 32.1539L41.2174 36.3807L41.3684 36.5316L48.7653 32.3048C49.822 31.701 50.2749 30.9462 50.2749 30.1914C50.2749 30.9462 49.671 31.55 48.7653 32.1539Z" fill="black"/>
<path opacity="0.25" d="M19.3286 11.4726L48.7653 28.2289C49.671 28.8327 50.2749 29.4365 50.2749 30.1913C50.2749 29.4365 49.822 28.6817 48.7653 28.0779L19.3286 11.3217C17.2152 10.114 15.5547 11.0197 15.5547 13.4351V13.586C15.5547 11.3217 17.2152 10.265 19.3286 11.4726Z" fill="white"/>
<defs>
<linearGradient id="paint0_linear_144_459" x1="33.3677" y1="13.1484" x2="8.03248" y2="38.482" gradientUnits="userSpaceOnUse">
<stop stop-color="#00A0FF"/>
<stop offset="0.007" stop-color="#00A1FF"/>
<stop offset="0.26" stop-color="#00BEFF"/>
<stop offset="0.512" stop-color="#00D2FF"/>
<stop offset="0.76" stop-color="#00DFFF"/>
<stop offset="1" stop-color="#00E3FF"/>
</linearGradient>
<linearGradient id="paint1_linear_144_459" x1="51.533" y1="30.1933" x2="15.0059" y2="30.1933" gradientUnits="userSpaceOnUse">
<stop stop-color="#FFE000"/>
<stop offset="0.409" stop-color="#FFBD00"/>
<stop offset="0.775" stop-color="#FFA500"/>
<stop offset="1" stop-color="#FF9C00"/>
</linearGradient>
<linearGradient id="paint2_linear_144_459" x1="37.9368" y1="33.6574" x2="3.58195" y2="68.0123" gradientUnits="userSpaceOnUse">
<stop stop-color="#FF3A44"/>
<stop offset="1" stop-color="#C31162"/>
</linearGradient>
<linearGradient id="paint3_linear_144_459" x1="11.474" y1="0.265804" x2="26.8158" y2="15.6076" gradientUnits="userSpaceOnUse">
<stop stop-color="#32A071"/>
<stop offset="0.069" stop-color="#2DA771"/>
<stop offset="0.476" stop-color="#15CF74"/>
<stop offset="0.801" stop-color="#06E775"/>
<stop offset="1" stop-color="#00F076"/>
</linearGradient>
</defs>
</svg>

<svg xmlns="http://www.w3.org/2000/svg" width="205" height="61" fill="none" viewBox="0 0 205 61"><path fill="#000" d="M196.704 60.383H8.007c-4.227 0-7.548-3.321-7.548-7.548V7.548C.459 3.32 3.78 0 8.007 0h188.697c4.226 0 7.547 3.321 7.547 7.548v45.287c0 4.227-3.321 7.548-7.547 7.548"/><path fill="#a6a6a6" d="M196.704 1.208c3.472 0 6.34 2.868 6.34 6.34v45.287c0 3.472-2.868 6.34-6.34 6.34H8.007c-3.472 0-6.34-2.868-6.34-6.34V7.548c0-3.472 2.868-6.34 6.34-6.34zm0-1.208H8.007C3.78 0 .459 3.472.459 7.548v45.287c0 4.227 3.321 7.548 7.548 7.548h188.697c4.226 0 7.547-3.321 7.547-7.548V7.548c0-4.076-3.321-7.548-7.547-7.548"/><path fill="#fff" stroke="#fff" stroke-miterlimit="10" stroke-width=".302" d="M72.013 15.398c0 1.207-.302 2.264-1.057 3.019-.906.906-1.963 1.358-3.321 1.358s-2.416-.452-3.321-1.358-1.359-1.963-1.359-3.321.453-2.416 1.359-3.321 1.962-1.359 3.32-1.359q.907 0 1.812.453c.604.302 1.057.604 1.359 1.057l-.755.754c-.604-.754-1.358-1.056-2.415-1.056-.906 0-1.812.302-2.416 1.056-.754.604-1.056 1.51-1.056 2.567 0 1.056.302 1.962 1.056 2.566.755.604 1.51 1.057 2.416 1.057 1.056 0 1.811-.302 2.566-1.057A2.5 2.5 0 0 0 70.956 16h-3.321v-1.207h4.377zm6.944-3.774H74.88v2.868h3.774v1.057H74.88v2.868h4.076v1.207h-5.284v-9.057h5.284zm4.981 8h-1.207v-8h-2.567v-1.057h6.34v1.057h-2.566zm6.944 0v-9.057h1.208v9.057zm6.34 0h-1.207v-8h-2.567v-1.057h6.19v1.057H97.07v8zm14.341-1.207c-.905.906-1.962 1.358-3.321 1.358-1.358 0-2.415-.452-3.321-1.358s-1.358-1.963-1.358-3.321.452-2.416 1.358-3.321 1.963-1.359 3.321-1.359 2.416.453 3.321 1.359 1.359 1.962 1.359 3.32c0 1.36-.453 2.416-1.359 3.322Zm-5.736-.755c.604.604 1.51 1.057 2.415 1.057.906 0 1.812-.302 2.416-1.057a3.65 3.65 0 0 0 1.056-2.566c0-1.057-.302-1.963-1.056-2.567-.604-.603-1.51-1.056-2.416-1.056s-1.811.302-2.415 1.056a3.64 3.64 0 0 0-1.057 2.567c0 1.056.302 1.962 1.057 2.566Zm8.755 1.962v-9.057h1.359l4.378 7.095v-7.095h1.208v9.057h-1.208l-4.68-7.396v7.396z"/><path fill="#fff" d="M103.26 32.909c-3.623 0-6.49 2.717-6.49 6.491a6.443 6.443 0 0 0 6.49 6.491c3.623 0 6.492-2.717 6.492-6.49 0-3.926-2.869-6.492-6.492-6.492m0 10.265c-1.962 0-3.623-1.66-3.623-3.925s1.661-3.925 3.623-3.925 3.623 1.51 3.623 3.925c0 2.264-1.66 3.925-3.623 3.925M89.221 32.91c-3.623 0-6.49 2.717-6.49 6.491a6.443 6.443 0 0 0 6.49 6.491c3.623 0 6.492-2.717 6.492-6.49 0-3.926-2.869-6.492-6.492-6.492m0 10.265c-1.962 0-3.623-1.66-3.623-3.925s1.661-3.925 3.623-3.925 3.623 1.51 3.623 3.925c0 2.264-1.66 3.925-3.623 3.925m-16.756-8.303v2.718h6.491c-.15 1.51-.755 2.717-1.51 3.472-.905.905-2.415 1.962-4.98 1.962-4.077 0-7.096-3.17-7.096-7.246s3.17-7.246 7.095-7.246c2.114 0 3.774.906 4.982 1.963l1.962-1.963c-1.66-1.51-3.774-2.717-6.793-2.717-5.434 0-10.114 4.529-10.114 9.963 0 5.435 4.68 9.963 10.114 9.963 3.02 0 5.133-.905 6.944-2.868 1.812-1.811 2.415-4.378 2.415-6.34 0-.604 0-1.208-.15-1.66zM141 36.985c-.604-1.51-2.114-4.076-5.435-4.076s-6.038 2.566-6.038 6.491c0 3.623 2.717 6.491 6.34 6.491 2.868 0 4.68-1.811 5.284-2.868l-2.114-1.51c-.754 1.057-1.66 1.812-3.17 1.812-1.509 0-2.415-.604-3.17-1.962l8.605-3.623zm-8.756 2.113c0-2.415 1.963-3.774 3.321-3.774 1.057 0 2.114.604 2.416 1.359zm-7.095 6.19h2.868v-18.87h-2.868zm-4.528-11.02c-.755-.755-1.963-1.51-3.472-1.51-3.171 0-6.19 2.868-6.19 6.491s2.868 6.34 6.19 6.34c1.509 0 2.717-.754 3.321-1.51h.151v.907c0 2.415-1.359 3.774-3.472 3.774-1.661 0-2.869-1.208-3.171-2.265l-2.415 1.057c.755 1.66 2.566 3.774 5.736 3.774 3.322 0 6.039-1.963 6.039-6.642V33.21h-2.717zm-3.322 8.906c-1.962 0-3.623-1.66-3.623-3.925s1.661-3.925 3.623-3.925 3.472 1.66 3.472 3.925-1.509 3.925-3.472 3.925m36.834-16.756h-6.793v18.87h2.868v-7.095h3.925c3.17 0 6.189-2.265 6.189-5.888s-3.019-5.887-6.189-5.887m.151 9.057h-4.076v-6.49h4.076c2.113 0 3.321 1.81 3.321 3.17-.151 1.66-1.359 3.32-3.321 3.32m17.36-2.717c-2.113 0-4.227.906-4.981 2.868l2.566 1.057c.604-1.057 1.509-1.359 2.566-1.359 1.51 0 2.868.906 3.019 2.416v.15c-.453-.301-1.66-.754-2.868-.754-2.717 0-5.434 1.51-5.434 4.227 0 2.566 2.264 4.226 4.679 4.226 1.963 0 2.868-.905 3.623-1.811h.151v1.51h2.717v-7.246c-.302-3.322-2.868-5.284-6.038-5.284m-.302 10.416c-.906 0-2.264-.453-2.264-1.66 0-1.51 1.66-1.963 3.019-1.963 1.208 0 1.811.302 2.566.604-.302 1.811-1.811 3.02-3.321 3.02m15.851-9.963-3.17 8.152h-.151l-3.321-8.152h-3.02l4.982 11.473-2.868 6.34h2.868l7.699-17.813zm-25.361 12.077h2.868v-18.87h-2.868z"/><path fill="url(#a)" d="M16.159 11.322c-.453.453-.604 1.207-.604 2.113v33.362c0 .906.302 1.66.755 2.113l.15.151 18.72-18.719v-.301z"/><path fill="url(#b)" d="m41.217 36.683-6.19-6.19v-.452l6.19-6.19.15.152 7.398 4.226c2.113 1.208 2.113 3.17 0 4.378z"/><path fill="url(#c)" d="m41.368 36.532-6.34-6.34-18.87 18.87c.755.754 1.812.754 3.17.15z"/><path fill="url(#d)" d="m41.368 23.851-22.04-12.53c-1.358-.754-2.415-.603-3.17.152l18.87 18.719z"/><path fill="#000" d="M41.217 36.38 19.328 48.76c-1.207.755-2.264.604-3.019 0l-.15.15.15.152c.755.604 1.812.755 3.02 0z" opacity=".2"/><path fill="#000" d="M16.159 48.76c-.453-.454-.604-1.209-.604-2.114v.15c0 .907.302 1.661.755 2.114v-.15zm32.606-16.606-7.548 4.227.151.15 7.397-4.226c1.057-.604 1.51-1.359 1.51-2.114 0 .755-.604 1.359-1.51 1.963" opacity=".12"/><path fill="#fff" d="m19.329 11.473 29.436 16.756c.906.604 1.51 1.207 1.51 1.962 0-.755-.453-1.51-1.51-2.113L19.33 11.322c-2.114-1.208-3.774-.302-3.774 2.113v.151c0-2.264 1.66-3.321 3.774-2.113" opacity=".25"/><defs><linearGradient id="a" x1="33.368" x2="8.032" y1="13.148" y2="38.482" gradientUnits="userSpaceOnUse"><stop stop-color="#00a0ff"/><stop offset=".007" stop-color="#00a1ff"/><stop offset=".26" stop-color="#00beff"/><stop offset=".512" stop-color="#00d2ff"/><stop offset=".76" stop-color="#00dfff"/><stop offset="1" stop-color="#00e3ff"/></linearGradient><linearGradient id="b" x1="51.533" x2="15.006" y1="30.193" y2="30.193" gradientUnits="userSpaceOnUse"><stop stop-color="#ffe000"/><stop offset=".409" stop-color="#ffbd00"/><stop offset=".775" stop-color="orange"/><stop offset="1" stop-color="#ff9c00"/></linearGradient><linearGradient id="c" x1="37.937" x2="3.582" y1="33.657" y2="68.012" gradientUnits="userSpaceOnUse"><stop stop-color="#ff3a44"/><stop offset="1" stop-color="#c31162"/></linearGradient><linearGradient id="d" x1="11.474" x2="26.816" y1=".266" y2="15.608" gradientUnits="userSpaceOnUse"><stop stop-color="#32a071"/><stop offset=".069" stop-color="#2da771"/><stop offset=".476" stop-color="#15cf74"/><stop offset=".801" stop-color="#06e775"/><stop offset="1" stop-color="#00f076"/></linearGradient></defs></svg>
